src/icons/flags/bi.svg

<svg viewBox="0 0 640 480" xmlns="http://www.w3.org/2000/svg" xmlns:xlink="http://www.w3.org/1999/xlink">
  <clipPath id="a">
    <path d="m-90.5 0h682.5v512h-682.5z"/>
  </clipPath>
  <g clip-path="url(#a)" fill-rule="evenodd" transform="matrix(.9375 0 0 .9375 84.9 0)">
    <path d="m-178 0 428.8 256-428.8 256zm857.6 0-428.8 256 428.8 256z" fill="#18b637"/>
    <path d="m-178 0 428.8 256 428.8-256zm0 512 428.8-256 428.8 256z" fill="#cf0921"/>
    <g fill="#fff">
      <path d="m679.6 0h-79.9l-777.7 464.3v47.7h79.9l777.7-464.3z"/>
      <path d="m398.9 256a148 148 0 11-296.1 0 148 148 0 01296 0z"/>
      <path d="m-178 0v47.7l777.7 464.3h79.9v-47.7l-777.7-464.3z"/>
    </g>
    <path d="m280 200.2-19.3.3-10 16.4-9.9-16.4-19.2-.4 9.3-16.9-9.2-16.8 19.2-.4 10-16.4 9.9 16.5 19.2.4-9.3 16.8zm-64.6 111.6-19.2.3-10 16.4-9.9-16.4-19.2-.4 9.3-16.9-9.2-16.8 19.2-.4 10-16.4 9.9 16.5 19.2.4-9.3 16.8zm130.6 0-19.2.3-10 16.4-10-16.4-19.1-.4 9.3-16.9-9.3-16.8 19.2-.4 10-16.4 10 16.5 19.2.4-9.4 16.8z" fill="#cf0921" stroke="#18b637" stroke-width="3.9"/>
  </g>
</svg>

<svg xmlns="http://www.w3.org/2000/svg" id="flag-icons-bi" viewBox="0 0 640 480">
  <defs>
    <clipPath id="bi-a">
      <path fill-opacity=".7" d="M-90.5 0H592v512H-90.5z"/>
    </clipPath>
  </defs>
  <g fill-rule="evenodd" clip-path="url(#bi-a)" transform="translate(84.9) scale(.9375)">
    <path fill="#18b637" d="m-178 0 428.8 256L-178 512zm857.6 0L250.8 256l428.8 256z"/>
    <path fill="#cf0921" d="m-178 0 428.8 256L679.6 0zm0 512 428.8-256 428.8 256z"/>
    <path fill="#fff" d="M679.6 0h-79.9L-178 464.3V512h79.9L679.6 47.7z"/>
    <path fill="#fff" d="M398.9 256a148 148 0 1 1-296.1 0 148 148 0 0 1 296 0z"/>
    <path fill="#fff" d="M-178 0v47.7L599.7 512h79.9v-47.7L-98.1 0z"/>
    <path fill="#cf0921" stroke="#18b637" stroke-width="3.9" d="m280 200.2-19.3.3-10 16.4-9.9-16.4-19.2-.4 9.3-16.9-9.2-16.8 19.2-.4 10-16.4 9.9 16.5 19.2.4-9.3 16.8zm-64.6 111.6-19.2.3-10 16.4-9.9-16.4-19.2-.4 9.3-16.9-9.2-16.8 19.2-.4 10-16.4 9.9 16.5 19.2.4-9.3 16.8zm130.6 0-19.2.3-10 16.4-10-16.4-19.1-.4 9.3-16.9-9.3-16.8 19.2-.4 10-16.4 10 16.5 19.2.4-9.4 16.8z"/>
  </g>
</svg>
